X: 23826
T: Little Molly 'O'
R: waltz
M: 3/4
K: Gmajor
d3 e/d/ B/A/B/d/|e2 g<e d<B|A3G B/A/G|G6||
d(3d/e/f/|g2 gbag|f2 gfed|e3g gedB|d4 d(3d/e/f/|
g2 gbag|f2 f2 ed|e3d Bd|e4 d(3def|
g>e e3d|e2 g<e d<B|A3G B/A/G|G6||

